resources/static/laterball_transparent.svg

<?xml version="1.0" encoding="UTF-8" standalone="no"?>
<svg
   xmlns:dc="http://purl.org/dc/elements/1.1/"
   xmlns:cc="http://creativecommons.org/ns#"
   xmlns:rdf="http://www.w3.org/1999/02/22-rdf-syntax-ns#"
   xmlns:svg="http://www.w3.org/2000/svg"
   xmlns="http://www.w3.org/2000/svg"
   xmlns:xlink="http://www.w3.org/1999/xlink"
   xmlns:sodipodi="http://sodipodi.sourceforge.net/DTD/sodipodi-0.dtd"
   xmlns:inkscape="http://www.inkscape.org/namespaces/inkscape"
   width="315.42722pt"
   height="35.25pt"
   viewBox="0 0 315.42722 35.249999"
   version="1.2"
   id="svg71"
   sodipodi:docname="laterball_transparent.svg"
   inkscape:version="0.92.3 (2405546, 2018-03-11)">
  <metadata
     id="metadata75">
    <rdf:RDF>
      <cc:Work
         rdf:about="">
        <dc:format>image/svg+xml</dc:format>
        <dc:type
           rdf:resource="http://purl.org/dc/dcmitype/StillImage" />
        <dc:title></dc:title>
      </cc:Work>
    </rdf:RDF>
  </metadata>
  <sodipodi:namedview
     pagecolor="#ffffff"
     bordercolor="#666666"
     borderopacity="1"
     objecttolerance="10"
     gridtolerance="10"
     guidetolerance="10"
     inkscape:pageopacity="0"
     inkscape:pageshadow="2"
     inkscape:window-width="1853"
     inkscape:window-height="1023"
     id="namedview73"
     showgrid="false"
     fit-margin-top="0"
     fit-margin-left="0"
     fit-margin-right="0"
     fit-margin-bottom="0"
     inkscape:zoom="1.3350176"
     inkscape:cx="216.96742"
     inkscape:cy="34.12739"
     inkscape:window-x="67"
     inkscape:window-y="27"
     inkscape:window-maximized="1"
     inkscape:current-layer="svg71" />
  <defs
     id="defs28">
    <g
       id="g23">
      <symbol
         overflow="visible"
         id="glyph0-0"
         style="overflow:visible">
        <path
           style="stroke:none"
           d="m 14.375,-27.109375 v 35.0625 H 3.28125 v -35.0625 z m -2.703125,2.34375 h -5.78125 v 1.15625 h 2.28125 v 1.28125 h -2.3125 v 1.1875 h 5.8125 v -1.1875 h -2.3125 v -1.28125 h 2.3125 z m -2.3125,4.53125 h -3.5 v 3.65625 h 5.8125 v -1.21875 h -2.3125 z m -1.1875,1.1875 v 1.25 H 7 v -1.25 z m 3.5,3.390625 h -5.8125 v 1.171875 h 2.3125 v 1.296875 h -2.3125 v 1.140625 h 3.5 v -2.4375 h 2.3125 z m 0,2.09375 H 10.53125 v 2.328125 H 5.859375 v 1.21875 h 5.8125 z m 0,4.3125 h -3.5 v 1.953125 h 1.1875 v -0.8125 h 1.171875 v 1.65625 H 7 V -9.25 H 5.859375 v 3.9375 h 5.8125 z m 0,6.046875 h -5.8125 V 0.78125 h 5.8125 z M 10.53125,-2.03125 v 1.625 H 7 v -1.625 z m 1.140625,3.609375 h -5.8125 V 2.71875 h 2.46875 L 5.859375,4.390625 V 5.53125 h 5.8125 V 4.390625 h -3.5625 l 2.46875,-1.671875 h 1.09375 z m 0,0"
           id="path2"
           inkscape:connector-curvature="0" />
      </symbol>
      <symbol
         overflow="visible"
         id="glyph0-1"
         style="overflow:visible">
        <path
           style="stroke:none"
           d="M 2.359375,0 V -26.234375 H 9.28125 V -5.59375 H 20.375 V 0 Z m 0,0"
           id="path5"
           inkscape:connector-curvature="0" />
      </symbol>
      <symbol
         overflow="visible"
         id="glyph0-2"
         style="overflow:visible">
        <path
           style="stroke:none"
           d="m 22.359375,0 -2.3125,-5.421875 H 8.40625 L 6.078125,0 H -0.84375 L 11.421875,-26.234375 H 16.875 L 29.1875,0 Z m -11.71875,-10.609375 h 7.15625 L 14.21875,-18.90625 Z m 0,0"
           id="path8"
           inkscape:connector-curvature="0" />
      </symbol>
      <symbol
         overflow="visible"
         id="glyph0-3"
         style="overflow:visible">
        <path
           style="stroke:none"
           d="M 8.25,0 V -20.625 H 0.4375 v -5.609375 h 22.625 V -20.625 H 15.25 V 0 Z m 0,0"
           id="path11"
           inkscape:connector-curvature="0" />
      </symbol>
      <symbol
         overflow="visible"
         id="glyph0-4"
         style="overflow:visible">
        <path
           style="stroke:none"
           d="m 2.359375,0 v -26.234375 h 18.71875 v 5.3125 H 9.09375 v 4.9375 H 20.296875 V -10.6875 H 9.09375 v 5.375 H 21.078125 V 0 Z m 0,0"
           id="path14"
           inkscape:connector-curvature="0" />
      </symbol>
      <symbol
         overflow="visible"
         id="glyph0-5"
         style="overflow:visible">
        <path
           style="stroke:none"
           d="m 25.171875,0 h -7.34375 L 14.4375,-8.734375 c -0.386719,-0.976563 -1.308594,-1.46875 -2.765625,-1.46875 h -2.5 V 0 h -6.8125 v -26.234375 h 12.1875 c 3.175781,0 5.5625,0.683594 7.15625,2.046875 1.59375,1.367188 2.390625,3.3125 2.390625,5.84375 0,1.761719 -0.476562,3.289062 -1.421875,4.578125 -0.9375,1.292969 -2.265625,2.210937 -3.984375,2.75 0.726562,0.148437 1.382812,0.492187 1.96875,1.03125 0.59375,0.542969 1.0625,1.265625 1.40625,2.171875 z m -11.71875,-15.359375 c 1.46875,0 2.53125,-0.226563 3.1875,-0.6875 0.664063,-0.457031 1,-1.160156 1,-2.109375 0,-1.007812 -0.324219,-1.734375 -0.96875,-2.171875 C 16.023438,-20.773438 14.953125,-21 13.453125,-21 H 9.09375 v 5.640625 z m 0,0"
           id="path17"
           inkscape:connector-curvature="0" />
      </symbol>
      <symbol
         overflow="visible"
         id="glyph0-6"
         style="overflow:visible">
        <path
           style="stroke:none"
           d="m 20,-13.59375 c 1.550781,0.4375 2.742188,1.21875 3.578125,2.34375 0.832031,1.117188 1.25,2.46875 1.25,4.0625 0,1.449219 -0.382813,2.714844 -1.140625,3.796875 C 22.925781,-2.304688 21.835938,-1.46875 20.421875,-0.875 19.015625,-0.289062 17.351562,0 15.4375,0 H 2.359375 v -26.234375 h 12.75 c 2.75,0 4.929687,0.617187 6.546875,1.84375 1.625,1.230469 2.4375,2.886719 2.4375,4.96875 0,1.355469 -0.359375,2.546875 -1.078125,3.578125 -0.710937,1.03125 -1.714844,1.78125 -3.015625,2.25 z M 9.09375,-15.953125 h 4.828125 c 1.28125,0 2.210937,-0.191406 2.796875,-0.578125 0.59375,-0.394531 0.890625,-1.023438 0.890625,-1.890625 0,-0.882813 -0.304687,-1.535156 -0.90625,-1.953125 C 16.109375,-20.789062 15.179688,-21 13.921875,-21 H 9.09375 Z m 5.53125,10.71875 c 1.320312,0 2.269531,-0.207031 2.84375,-0.625 0.582031,-0.414063 0.875,-1.113281 0.875,-2.09375 0,-1.007813 -0.28125,-1.722656 -0.84375,-2.140625 -0.5625,-0.414062 -1.523438,-0.625 -2.875,-0.625 H 9.09375 v 5.484375 z m 0,0"
           id="path20"
           inkscape:connector-curvature="0" />
      </symbol>
    </g>
    <clipPath
       id="clip1">
      <path
         d="m 29.457031,177.35156 h 35.25 v 35.25 h -35.25 z m 0,0"
         id="path25"
         inkscape:connector-curvature="0" />
    </clipPath>
  </defs>
  <g
     id="surface1"
     transform="translate(-29.457031,-177.35156)">
    <g
       clip-path="url(#clip1)"
       id="g32"
       style="clip-rule:nonzero">
      <path
         style="fill:#ffffff;fill-opacity:1;fill-rule:nonzero;stroke:none"
         d="m 47.234375,177.35156 c -9.816406,0 -17.777344,7.96094 -17.777344,17.77344 0,9.80859 7.960938,17.76953 17.777344,17.76953 9.804687,0 17.769531,-7.96094 17.769531,-17.76953 0,-9.8125 -7.964844,-17.77344 -17.769531,-17.77344 z m -2.421875,1.56641 c -0.144531,0 0.570312,-0.14453 1.136719,-0.14453 0.429687,0 0.855469,0 1.285156,0 5.964844,0 11.085937,3.1289 13.929687,7.82031 0.285157,0.42969 0.710938,1.28125 0.710938,1.28125 -4.976562,-3.13281 -10.945312,-4.69141 -17.0625,-3.84375 -0.136719,-1.70313 -0.136719,-3.41406 0,-5.11328 z m -8.382812,3.98047 c 0.140624,-0.14453 0.570312,-0.57032 0.996093,-0.85547 1.566407,-1.14063 3.269531,-1.98828 5.121094,-2.55469 0.425781,-0.14453 0.996094,-0.28516 0.855469,-0.28516 -0.429688,4.83594 0.425781,9.94922 2.984375,14.5 -1.425781,2.41407 -3.128907,4.40625 -5.121094,5.96875 -3.847656,-4.97265 -5.40625,-10.94921 -4.835937,-16.77343 0,0 -0.144532,0 0,0 z M 33.4375,203.9375 c 0,-0.14453 -0.570312,-1 -0.855469,-1.56641 -1.136719,-2.13281 -1.707031,-4.69531 -1.707031,-7.2539 0,-3.69532 1.136719,-6.96485 3.269531,-9.66407 0.28125,-0.5664 0.851563,-1.13671 0.710938,-0.99609 -0.144531,5.69141 1.566406,11.375 5.261719,16.21094 -2.128907,1.42187 -4.257813,2.5625 -6.679688,3.26953 z m 5.691406,5.40234 C 37.5625,208.34375 36,207.21094 34.863281,205.78906 c -0.285156,-0.28515 -0.570312,-0.57031 -0.429687,-0.57031 5.40625,-1.85156 10.09375,-5.54688 13.226562,-10.80469 2.699219,0 5.40625,0.57031 7.820313,1.42578 -2.847657,6.96485 -8.816407,11.9336 -15.496094,13.78516 0.140625,0.28516 -0.429687,0 -0.855469,-0.28516 z m 23.601563,-9.10156 c 0,0.14453 -0.144531,0.42969 -0.285157,0.71484 -2.414062,6.11719 -8.246093,10.51954 -15.210937,10.51954 -1.710937,0 -3.414063,-0.28516 -4.980469,-0.71485 -0.140625,0 -0.285156,-0.14062 -0.285156,-0.14062 6.539062,-2.41407 11.945312,-7.39453 14.785156,-14.21485 2.28125,0.9961 4.265625,2.27735 5.976563,3.83594 z m 0.425781,-1.41406 c -4.265625,-3.55469 -9.664062,-5.69141 -15.496094,-5.82813 -1.28125,-2.41406 -2.273437,-4.97656 -2.699218,-7.53515 6.539062,-0.85547 12.941406,0.99609 17.910156,4.83593 -0.140625,-0.28515 0.144531,0.28516 0.285156,0.85547 0.285156,1.28125 0.429688,2.55469 0.429688,3.98047 0,0.85547 0,1.71094 -0.144532,2.41406 -0.140625,0.5625 -0.285156,1.13282 -0.285156,1.27735 z m 0,0"
         id="path30"
         inkscape:connector-curvature="0" />
    </g>
    <g
       style="fill:#f5f5f5;fill-opacity:1"
       id="g36">
      <use
         xlink:href="#glyph0-1"
         x="74.25663"
         y="208.15253"
         id="use34"
         width="100%"
         height="100%" />
    </g>
    <g
       style="fill:#f5f5f5;fill-opacity:1"
       id="g40">
      <use
         xlink:href="#glyph0-2"
         x="102.21499"
         y="208.15253"
         id="use38"
         width="100%"
         height="100%" />
    </g>
    <g
       style="fill:#f5f5f5;fill-opacity:1"
       id="g44">
      <use
         xlink:href="#glyph0-3"
         x="137.17154"
         y="208.15253"
         id="use42"
         width="100%"
         height="100%" />
    </g>
    <g
       style="fill:#f5f5f5;fill-opacity:1"
       id="g48">
      <use
         xlink:href="#glyph0-4"
         x="167.30302"
         y="208.15253"
         id="use46"
         width="100%"
         height="100%" />
    </g>
    <g
       style="fill:#f5f5f5;fill-opacity:1"
       id="g52">
      <use
         xlink:href="#glyph0-5"
         x="196.18219"
         y="208.15253"
         id="use50"
         width="100%"
         height="100%" />
    </g>
    <g
       style="fill:#008ff8;fill-opacity:1"
       id="g56">
      <use
         xlink:href="#glyph0-6"
         x="229.10556"
         y="208.15253"
         id="use54"
         width="100%"
         height="100%" />
    </g>
    <g
       style="fill:#008ff8;fill-opacity:1"
       id="g60">
      <use
         xlink:href="#glyph0-2"
         x="261.59433"
         y="208.15253"
         id="use58"
         width="100%"
         height="100%" />
    </g>
    <g
       style="fill:#008ff8;fill-opacity:1"
       id="g64">
      <use
         xlink:href="#glyph0-1"
         x="296.55087"
         y="208.15253"
         id="use62"
         width="100%"
         height="100%" />
    </g>
    <g
       style="fill:#008ff8;fill-opacity:1"
       id="g68">
      <use
         xlink:href="#glyph0-1"
         x="324.50925"
         y="208.15253"
         id="use66"
         width="100%"
         height="100%" />
    </g>
  </g>
</svg>

<?xml version="1.0" encoding="UTF-8"?>
<svg xmlns="http://www.w3.org/2000/svg" xmlns:xlink="http://www.w3.org/1999/xlink" width="375pt" height="374.999991pt" viewBox="0 0 375 374.999991" version="1.2">
<defs>
<g>
<symbol overflow="visible" id="glyph0-0">
<path style="stroke:none;" d="M 14.375 -27.109375 L 14.375 7.953125 L 3.28125 7.953125 L 3.28125 -27.109375 Z M 11.671875 -24.765625 L 5.890625 -24.765625 L 5.890625 -23.609375 L 8.171875 -23.609375 L 8.171875 -22.328125 L 5.859375 -22.328125 L 5.859375 -21.140625 L 11.671875 -21.140625 L 11.671875 -22.328125 L 9.359375 -22.328125 L 9.359375 -23.609375 L 11.671875 -23.609375 Z M 9.359375 -20.234375 L 5.859375 -20.234375 L 5.859375 -16.578125 L 11.671875 -16.578125 L 11.671875 -17.796875 L 9.359375 -17.796875 Z M 8.171875 -19.046875 L 8.171875 -17.796875 L 7 -17.796875 L 7 -19.046875 Z M 11.671875 -15.65625 L 5.859375 -15.65625 L 5.859375 -14.484375 L 8.171875 -14.484375 L 8.171875 -13.1875 L 5.859375 -13.1875 L 5.859375 -12.046875 L 9.359375 -12.046875 L 9.359375 -14.484375 L 11.671875 -14.484375 Z M 11.671875 -13.5625 L 10.53125 -13.5625 L 10.53125 -11.234375 L 5.859375 -11.234375 L 5.859375 -10.015625 L 11.671875 -10.015625 Z M 11.671875 -9.25 L 8.171875 -9.25 L 8.171875 -7.296875 L 9.359375 -7.296875 L 9.359375 -8.109375 L 10.53125 -8.109375 L 10.53125 -6.453125 L 7 -6.453125 L 7 -9.25 L 5.859375 -9.25 L 5.859375 -5.3125 L 11.671875 -5.3125 Z M 11.671875 -3.203125 L 5.859375 -3.203125 L 5.859375 0.78125 L 11.671875 0.78125 Z M 10.53125 -2.03125 L 10.53125 -0.40625 L 7 -0.40625 L 7 -2.03125 Z M 11.671875 1.578125 L 5.859375 1.578125 L 5.859375 2.71875 L 8.328125 2.71875 L 5.859375 4.390625 L 5.859375 5.53125 L 11.671875 5.53125 L 11.671875 4.390625 L 8.109375 4.390625 L 10.578125 2.71875 L 11.671875 2.71875 Z M 11.671875 1.578125 "/>
</symbol>
<symbol overflow="visible" id="glyph0-1">
<path style="stroke:none;" d="M 2.359375 0 L 2.359375 -26.234375 L 9.28125 -26.234375 L 9.28125 -5.59375 L 20.375 -5.59375 L 20.375 0 Z M 2.359375 0 "/>
</symbol>
<symbol overflow="visible" id="glyph0-2">
<path style="stroke:none;" d="M 22.359375 0 L 20.046875 -5.421875 L 8.40625 -5.421875 L 6.078125 0 L -0.84375 0 L 11.421875 -26.234375 L 16.875 -26.234375 L 29.1875 0 Z M 10.640625 -10.609375 L 17.796875 -10.609375 L 14.21875 -18.90625 Z M 10.640625 -10.609375 "/>
</symbol>
<symbol overflow="visible" id="glyph0-3">
<path style="stroke:none;" d="M 8.25 0 L 8.25 -20.625 L 0.4375 -20.625 L 0.4375 -26.234375 L 23.0625 -26.234375 L 23.0625 -20.625 L 15.25 -20.625 L 15.25 0 Z M 8.25 0 "/>
</symbol>
<symbol overflow="visible" id="glyph0-4">
<path style="stroke:none;" d="M 2.359375 0 L 2.359375 -26.234375 L 21.078125 -26.234375 L 21.078125 -20.921875 L 9.09375 -20.921875 L 9.09375 -15.984375 L 20.296875 -15.984375 L 20.296875 -10.6875 L 9.09375 -10.6875 L 9.09375 -5.3125 L 21.078125 -5.3125 L 21.078125 0 Z M 2.359375 0 "/>
</symbol>
<symbol overflow="visible" id="glyph0-5">
<path style="stroke:none;" d="M 25.171875 0 L 17.828125 0 L 14.4375 -8.734375 C 14.050781 -9.710938 13.128906 -10.203125 11.671875 -10.203125 L 9.171875 -10.203125 L 9.171875 0 L 2.359375 0 L 2.359375 -26.234375 L 14.546875 -26.234375 C 17.722656 -26.234375 20.109375 -25.550781 21.703125 -24.1875 C 23.296875 -22.820312 24.09375 -20.875 24.09375 -18.34375 C 24.09375 -16.582031 23.617188 -15.054688 22.671875 -13.765625 C 21.734375 -12.472656 20.40625 -11.554688 18.6875 -11.015625 C 19.414062 -10.867188 20.070312 -10.523438 20.65625 -9.984375 C 21.25 -9.441406 21.71875 -8.71875 22.0625 -7.8125 Z M 13.453125 -15.359375 C 14.921875 -15.359375 15.984375 -15.585938 16.640625 -16.046875 C 17.304688 -16.503906 17.640625 -17.207031 17.640625 -18.15625 C 17.640625 -19.164062 17.316406 -19.890625 16.671875 -20.328125 C 16.023438 -20.773438 14.953125 -21 13.453125 -21 L 9.09375 -21 L 9.09375 -15.359375 Z M 13.453125 -15.359375 "/>
</symbol>
<symbol overflow="visible" id="glyph0-6">
<path style="stroke:none;" d="M 20 -13.59375 C 21.550781 -13.15625 22.742188 -12.375 23.578125 -11.25 C 24.410156 -10.132812 24.828125 -8.78125 24.828125 -7.1875 C 24.828125 -5.738281 24.445312 -4.472656 23.6875 -3.390625 C 22.925781 -2.304688 21.835938 -1.46875 20.421875 -0.875 C 19.015625 -0.289062 17.351562 0 15.4375 0 L 2.359375 0 L 2.359375 -26.234375 L 15.109375 -26.234375 C 17.859375 -26.234375 20.039062 -25.617188 21.65625 -24.390625 C 23.28125 -23.160156 24.09375 -21.503906 24.09375 -19.421875 C 24.09375 -18.066406 23.734375 -16.875 23.015625 -15.84375 C 22.304688 -14.8125 21.300781 -14.0625 20 -13.59375 Z M 9.09375 -15.953125 L 13.921875 -15.953125 C 15.203125 -15.953125 16.132812 -16.144531 16.71875 -16.53125 C 17.3125 -16.925781 17.609375 -17.554688 17.609375 -18.421875 C 17.609375 -19.304688 17.304688 -19.957031 16.703125 -20.375 C 16.109375 -20.789062 15.179688 -21 13.921875 -21 L 9.09375 -21 Z M 14.625 -5.234375 C 15.945312 -5.234375 16.894531 -5.441406 17.46875 -5.859375 C 18.050781 -6.273438 18.34375 -6.972656 18.34375 -7.953125 C 18.34375 -8.960938 18.0625 -9.675781 17.5 -10.09375 C 16.9375 -10.507812 15.976562 -10.71875 14.625 -10.71875 L 9.09375 -10.71875 L 9.09375 -5.234375 Z M 14.625 -5.234375 "/>
</symbol>
</g>
<clipPath id="clip1">
  <path d="M 29.457031 177.351562 L 64.707031 177.351562 L 64.707031 212.601562 L 29.457031 212.601562 Z M 29.457031 177.351562 "/>
</clipPath>
</defs>
<g id="surface1">
<g clip-path="url(#clip1)" clip-rule="nonzero">
<path style=" stroke:none;fill-rule:nonzero;fill:rgb(100%,100%,100%);fill-opacity:1;" d="M 47.234375 177.351562 C 37.417969 177.351562 29.457031 185.3125 29.457031 195.125 C 29.457031 204.933594 37.417969 212.894531 47.234375 212.894531 C 57.039062 212.894531 65.003906 204.933594 65.003906 195.125 C 65.003906 185.3125 57.039062 177.351562 47.234375 177.351562 Z M 44.8125 178.917969 C 44.667969 178.917969 45.382812 178.773438 45.949219 178.773438 C 46.378906 178.773438 46.804688 178.773438 47.234375 178.773438 C 53.199219 178.773438 58.320312 181.902344 61.164062 186.59375 C 61.449219 187.023438 61.875 187.875 61.875 187.875 C 56.898438 184.742188 50.929688 183.183594 44.8125 184.03125 C 44.675781 182.328125 44.675781 180.617188 44.8125 178.917969 Z M 36.429688 182.898438 C 36.570312 182.753906 37 182.328125 37.425781 182.042969 C 38.992188 180.902344 40.695312 180.054688 42.546875 179.488281 C 42.972656 179.34375 43.542969 179.203125 43.402344 179.203125 C 42.972656 184.039062 43.828125 189.152344 46.386719 193.703125 C 44.960938 196.117188 43.257812 198.109375 41.265625 199.671875 C 37.417969 194.699219 35.859375 188.722656 36.429688 182.898438 C 36.429688 182.898438 36.285156 182.898438 36.429688 182.898438 Z M 33.4375 203.9375 C 33.4375 203.792969 32.867188 202.9375 32.582031 202.371094 C 31.445312 200.238281 30.875 197.675781 30.875 195.117188 C 30.875 191.421875 32.011719 188.152344 34.144531 185.453125 C 34.425781 184.886719 34.996094 184.316406 34.855469 184.457031 C 34.710938 190.148438 36.421875 195.832031 40.117188 200.667969 C 37.988281 202.089844 35.859375 203.230469 33.4375 203.9375 Z M 39.128906 209.339844 C 37.5625 208.34375 36 207.210938 34.863281 205.789062 C 34.578125 205.503906 34.292969 205.21875 34.433594 205.21875 C 39.839844 203.367188 44.527344 199.671875 47.660156 194.414062 C 50.359375 194.414062 53.066406 194.984375 55.480469 195.839844 C 52.632812 202.804688 46.664062 207.773438 39.984375 209.625 C 40.125 209.910156 39.554688 209.625 39.128906 209.339844 Z M 62.730469 200.238281 C 62.730469 200.382812 62.585938 200.667969 62.445312 200.953125 C 60.03125 207.070312 54.199219 211.472656 47.234375 211.472656 C 45.523438 211.472656 43.820312 211.1875 42.253906 210.757812 C 42.113281 210.757812 41.96875 210.617188 41.96875 210.617188 C 48.507812 208.203125 53.914062 203.222656 56.753906 196.402344 C 59.035156 197.398438 61.019531 198.679688 62.730469 200.238281 Z M 63.15625 198.824219 C 58.890625 195.269531 53.492188 193.132812 47.660156 192.996094 C 46.378906 190.582031 45.386719 188.019531 44.960938 185.460938 C 51.5 184.605469 57.902344 186.457031 62.871094 190.296875 C 62.730469 190.011719 63.015625 190.582031 63.15625 191.152344 C 63.441406 192.433594 63.585938 193.707031 63.585938 195.132812 C 63.585938 195.988281 63.585938 196.84375 63.441406 197.546875 C 63.300781 198.109375 63.15625 198.679688 63.15625 198.824219 Z M 63.15625 198.824219 "/>
</g>
<g style="fill:rgb(96.469116%,96.469116%,96.469116%);fill-opacity:1;">
  <use xlink:href="#glyph0-1" x="74.256628" y="208.152525"/>
</g>
<g style="fill:rgb(96.469116%,96.469116%,96.469116%);fill-opacity:1;">
  <use xlink:href="#glyph0-2" x="102.214985" y="208.152525"/>
</g>
<g style="fill:rgb(96.469116%,96.469116%,96.469116%);fill-opacity:1;">
  <use xlink:href="#glyph0-3" x="137.171536" y="208.152525"/>
</g>
<g style="fill:rgb(96.469116%,96.469116%,96.469116%);fill-opacity:1;">
  <use xlink:href="#glyph0-4" x="167.303019" y="208.152525"/>
</g>
<g style="fill:rgb(96.469116%,96.469116%,96.469116%);fill-opacity:1;">
  <use xlink:href="#glyph0-5" x="196.182194" y="208.152525"/>
</g>
<g style="fill:rgb(0%,56.469727%,97.24884%);fill-opacity:1;">
  <use xlink:href="#glyph0-6" x="229.105554" y="208.152525"/>
</g>
<g style="fill:rgb(0%,56.469727%,97.24884%);fill-opacity:1;">
  <use xlink:href="#glyph0-2" x="261.594324" y="208.152525"/>
</g>
<g style="fill:rgb(0%,56.469727%,97.24884%);fill-opacity:1;">
  <use xlink:href="#glyph0-1" x="296.550875" y="208.152525"/>
</g>
<g style="fill:rgb(0%,56.469727%,97.24884%);fill-opacity:1;">
  <use xlink:href="#glyph0-1" x="324.509232" y="208.152525"/>
</g>
</g>
</svg>
